<?xml version="1.0" encoding="UTF-8"?>
<map version="1.10" tiledversion="1.12.2" orientation="orthogonal" renderorder="right-down" width="20" height="18" tilewidth="8" tileheight="8" infinite="0" nextlayerid="3" nextobjectid="1">
 <tileset firstgid="1" source="../interior_tiles.tsx"/>
 <layer id="1" name="Tile Layer 1" width="20" height="18">
  <data encoding="csv">
6,6,6,6,6,6,6,6,6,6,6,6,6,6,6,6,6,6,6,6,
6,6,6,6,6,6,6,6,6,6,6,6,6,6,6,6,6,6,6,6,
6,6,6,6,6,6,6,6,6,6,6,6,6,6,6,6,6,6,6,6,
6,6,6,6,6,6,6,6,6,6,6,6,6,6,6,6,6,6,6,6,
6,6,6,6,6,6,6,6,6,6,6,6,6,6,6,6,6,6,6,6,
6,6,6,6,6,6,6,6,6,6,6,6,6,6,6,6,6,6,6,6,
6,6,6,6,6,6,6,6,6,6,6,6,6,6,6,6,6,6,6,6,
6,6,6,6,6,6,6,6,6,6,6,6,6,6,6,6,6,6,6,6,
6,6,6,6,6,6,6,6,6,6,6,6,6,6,6,6,6,6,6,6,
6,6,6,6,6,6,6,6,6,6,6,6,6,6,6,6,6,6,6,6,
6,6,6,6,6,6,6,6,6,6,6,6,6,6,6,6,6,6,6,6,
6,6,6,6,6,6,6,6,6,6,6,6,6,6,6,6,6,6,6,6,
6,6,6,6,6,6,6,6,6,6,6,6,6,6,6,6,6,6,6,6,
6,6,6,6,6,6,6,6,6,6,6,6,6,6,6,6,6,6,6,6,
6,6,6,6,6,6,6,6,6,6,6,6,6,6,6,6,6,6,6,6,
6,6,6,6,6,6,6,6,6,6,6,6,6,6,6,6,6,6,6,6,
6,6,6,6,6,6,6,6,6,6,6,6,6,6,6,6,6,6,6,6,
6,6,6,6,6,6,6,6,6,6,6,6,6,6,6,6,6,6,6,6
</data>
 </layer>
 <layer id="2" name="Tile Layer 2" width="20" height="18">
  <data encoding="csv">
0,0,0,0,0,12,11,0,0,0,0,0,0,21,1,2,17,18,17,18,
0,0,0,0,0,12,11,0,0,0,0,0,0,29,9,10,25,26,25,26,
0,0,0,0,0,12,11,0,0,0,0,0,21,19,1,2,17,18,17,18,
0,0,0,0,0,12,11,0,0,0,0,0,29,19,9,10,25,26,25,26,
0,0,0,0,0,12,11,0,0,0,0,0,0,0,3,3,3,3,3,3,
5,5,5,5,5,14,11,0,0,0,0,0,0,0,3,3,3,3,3,3,
4,4,4,4,4,4,13,0,0,0,0,0,0,0,0,0,0,0,0,0,
19,19,19,19,19,19,20,0,0,0,0,0,0,0,0,0,0,0,0,0,
0,0,0,0,0,0,0,0,0,0,0,0,0,0,0,0,0,0,0,0,
0,0,0,0,0,0,0,0,0,0,0,0,0,0,0,0,0,0,0,0,
0,0,0,0,0,0,0,0,0,0,0,0,0,0,0,0,0,0,0,0,
0,0,0,0,0,0,0,0,0,0,0,0,0,0,0,0,0,0,0,0,
0,0,0,0,0,0,0,0,0,0,0,0,0,0,0,0,0,0,0,0,
0,0,0,0,0,0,0,0,0,0,0,0,0,0,0,0,0,0,0,0,
0,0,0,0,0,0,0,0,0,0,0,0,0,0,0,0,0,0,0,0,
0,0,0,0,0,0,0,0,0,0,0,0,0,0,0,0,0,0,0,0,
0,0,0,0,0,0,0,0,3,3,3,3,0,0,0,0,0,0,0,0,
0,0,0,0,0,0,0,0,3,3,3,3,0,0,0,0,0,0,0,0
</data>
 </layer>
</map>
